X: 3
T: Yellow Stockings   [Am]
T: Mad Moll
O: Barnes v.2 2005
B: William Neal "Choice Collection" 1726
B: Barnes v.2 p.147 in Am
N: some versions retain the `f' sharp
M: 9/8
L: 1/8
K: Am
|: "Am"c>de cAA cAA | "Am"c>de cAA  "G"B2G | "Am"c>de cAA cAA | "G"B>cd ded "(G7)"B2G :| 
|:  "C"c>de gee gee |  "C"c>de gee "G7"f2d |  "C"c>de gee gee | "Dm"f2d ded  "G7" B2G :| 
